X:7
T:MacArthur Road
R:Reel
C:Dave Richardson
L:1/8
M:C|
K:D
[|{g}dA {gAGAG}A2 {g}AB{g}de | {fege} f2 {g}fd {g}ed{g}Bd | {gef}e2 {A}ef {g}ed{g}Bd | {g}ef{g}fd {g}ed{g}Be |
{g}dA {gAGAG}A2 {g}AB{g}de | {fege} f2 {g}fd {g}ed{g}Bd | {gef}e2 {A}ef {g}ed{g}B{d}A| {g}AB{g}de {Gdc}d2 {g}de ||
{g}fA {gAGAG}A2 {g}fAgA | {gfg}f2 ge {g}fd{g}Bd | {gef}e2 {A}ef {g}ed{g}Bd | {g}ef{g}fd {g}ed{g}Bd |
{g}fA {gAGAG}A2 {g}fAgA | {gfg}f2 ge {g}fd{g}Bd | {gef}e2 {A}ef {g}ed{g}B{d}A | {g}AB{g}de {Gdc}d2 {g}de |
{g}fA {gAGAG}A2 {g}fAgA | {g}fAgA {g}fd{g}Bd | {gef}e2 {A}ef {g}ed{g}Bd | {g}e4 {g}f2g2 |
"    Welcome back to the opener"{ag}a2Aa dafA | {gBeBG}B2g{a}(B B)g{a}dB | {gcd}c2{g}B{d}A {g}ecA{g}(c | c)A{g}dA {g}eA{g}ce |
{ag}a2Aa dafA | {gBeBG}B2gB {G}(A4 | "Harmonies bringing it back"(A8) | A8) | 
{gef}e2 {A}ef {g}ed{g}Bd | {g}e(a a)f {g}eA{g}Bd | {gef}e2 {A}ef {g}ed{g}B{d}A| {g}AB{g}de {g}d4 |]
